X: 13226
T: Fisher's
R: hornpipe
M: 4/4
K: Dmajor
Ac|:dAFD GBAG|FDFD GBAG|FDFD GBAG|FDFD EABc|
dAFD GBAG|FDFD GBAG|FGAc ecAc|1 dAFE DABc:|2 dAFE DAcd||
|:ecAc efge|fdAd fa (3gag|ecAc efgf|edcB A2 (3dc=c|
BGDG BcdB|AFDF A3 A|(3cd^d ef gfec|1 dfec decd:|2 dfec d2||

